packages/tokens/icons/recommendedProducts/size32Px.svg

<svg viewBox="0 0 32 32" fill="none" xmlns="http://www.w3.org/2000/svg" width="1em" height="1em"><rect x="2.5" y="5.5" width="27" height="21" rx="1.5" stroke="currentColor"/><line x1="3" y1="9.5" x2="29" y2="9.5" stroke="currentColor"/><circle cx="4.5" cy="7.5" r="0.5" fill="currentColor"/><circle cx="6.5" cy="7.5" r="0.5" fill="currentColor"/><circle cx="8.5" cy="7.5" r="0.5" fill="currentColor"/><path d="M15.5 20.5L16.7929 21.7929C17.1834 22.1834 17.8166 22.1834 18.2071 21.7929L26.5 13.5" stroke="currentColor" stroke-linecap="round"/><path d="M22.5 13.5H26.5L26.5 17.5" stroke="currentColor" stroke-linecap="round" stroke-linejoin="round"/><path d="M7.09196 19.1233L6.03961 18.1072C5.60246 17.6851 5.82243 16.9456 6.41921 16.8311L8.03259 16.5215C8.27181 16.4756 8.47384 16.3163 8.57438 16.0945L9.06686 15.0076C9.33297 14.4204 10.167 14.4203 10.4331 15.0076L10.9256 16.0945C11.0262 16.3163 11.2282 16.4756 11.4674 16.5215L13.0808 16.8311C13.6776 16.9456 13.8975 17.6851 13.4604 18.1072L12.408 19.1233C12.2308 19.2944 12.1489 19.5417 12.189 19.7848L12.4674 21.4745C12.5692 22.0925 11.9135 22.5557 11.3651 22.2531L10.1123 21.562C9.88679 21.4375 9.61321 21.4375 9.38769 21.562L8.13494 22.2531C7.58652 22.5557 6.93078 22.0925 7.03261 21.4745L7.31103 19.7848C7.35109 19.5417 7.2692 19.2944 7.09196 19.1233Z" stroke="currentColor" stroke-linejoin="round"/></svg>

<svg xmlns="http://www.w3.org/2000/svg" fill="none" viewBox="0 0 32 32" width="1em" height="1em"><rect width="27" height="21" x="2.5" y="5.5" stroke="currentColor" rx="1.5"/><path stroke="currentColor" d="M3 9.5h26"/><circle cx="4.5" cy="7.5" r=".5" fill="currentColor"/><circle cx="6.5" cy="7.5" r=".5" fill="currentColor"/><circle cx="8.5" cy="7.5" r=".5" fill="currentColor"/><path stroke="currentColor" stroke-linecap="round" d="m15.5 20.5 1.293 1.293a1 1 0 0 0 1.414 0L26.5 13.5"/><path stroke="currentColor" stroke-linecap="round" stroke-linejoin="round" d="M22.5 13.5h4v4"/><path stroke="currentColor" stroke-linejoin="round" d="M7.092 19.123 6.04 18.107a.75.75 0 0 1 .38-1.276l1.613-.31a.75.75 0 0 0 .541-.427l.493-1.086a.75.75 0 0 1 1.366 0l.493 1.087a.75.75 0 0 0 .541.427l1.614.31a.75.75 0 0 1 .38 1.275l-1.053 1.016a.75.75 0 0 0-.219.662l.278 1.69a.75.75 0 0 1-1.102.778l-1.253-.691a.75.75 0 0 0-.724 0l-1.253.691a.75.75 0 0 1-1.102-.779l.278-1.69a.75.75 0 0 0-.219-.66Z"/></svg>
